X:166
T:The Wounded Hussar
C:No 166 William Clarke of Feltwell
N:Transcribed M.Humphreys May2010.Written with note values for 3/8, time
K:C
signature written as 6/8.I have changed note values to correspond with
6/8 time to reflect the Slow comment at the beginning of the tune.
M:6/8
L:1/8
K:Am
P:Slow
(AG)|E2A2B2|c4(BA)| (BcdcBA)|^G2A2B2|c2e2c2|(edcBAG)|E2A2^G2| A4 (AG)|
E2A2B2|c4(BA) |(BcdcBA)| ^G2 A2 B2| c2e2c2| (edcBAG)| E2A2 ^G2| A4||
(AB)|c2e2e2|e4 dc|B2d2d2|d4g2| e2a2^g2| a2b2c’2|e2a2^g2| !fermata! a4 (ab)|
c’2b2a2| g2f2e2| (edcBAg)|G2A2B2| c2e2c2| (edcBAG)|E2A2^G2| A6||

